!!!COM: Bach, Johann Sebastian
!!!CDT: 1685/3//-1750/7/28/
!!!OTL@@DE: O Traurigkeit
!!!AGN: 4-Part Chorale
!!!SCT: BH 57
!!!SCT: BWV 404
**harm	**root	**kern	**kern	**kern	**kern
!	!	!bass	!tenor	!alto	!soprno
*	*Iorgan	*Iorgan	*Iorgan	*Iorgan	*Iorgan
*	*	*clefF4	*clefF4	*clefG2	*clefG2
*k[f#]	*k[f#]	*k[f#]	*k[f#]	*k[f#]	*k[f#]
*e:	*e:	*e:	*e:	*e:	*e:
*M4/4	*M4/4	*M4/4	*M4/4	*M4/4	*M4/4
*met(c)	*met(c)	*met(c)	*met(c)	*met(c)	*met(c)
*MM60	*MM60	*MM60	*MM60	*MM60	*MM60
V	4EE	4BB	4F#	4d#	4b
=1	=1	=1	=1	=1	=1
i	4AA	4E	8E	4B	8g
.	.	.	8D#	.	8f#
viio7c/V	4DD#	4EE	4C#	8B	4g
.	.	.	.	8A#	.
V	4EE	4BB;	4D#;	4B;	4f#;
Vd	4EE	4AA	4F#	4B	4d#
=2	=2	=2	=2	=2	=2
ib	4AA	4GG	4G	4B	4e
iv	4DD	4C	8F#	4A	4e
.	.	.	8E	.	.
V;	4EE;	4BB;	4F#;	4B;	4d#;
V	4EE	4BB	4F#	4d#	4b
=3	=3	=3	=3	=3	=3
i	4AA	4E	4G	4e	4b
Vb	4EE	4D#	4F#	4f#	4b
VI	4FF	8E	8G	4e	4cc
.	.	8F#	8A	.	.
III	4CC	4G	8B	4d	8b
.	.	.	8G	.	8a
=4	=4	=4	=4	=4	=4
V7b/-VII	4DD	4C#	4G	4e	2a
-VII	4GG	4D	4F#	8d	.
.	.	.	.	8c	.
III;	2CC;	2GG;	2G;	2B;	2g;
!!linebreak: 2
=5	=5	=5	=5	=5	=5
-VII	4GG	4DD	4A	4d	4f#
VIb	4FF	4EE	4G	8c	4g
.	.	.	.	8B	.
-VIIb	4GG	4FF#	4d	8A	4a
.	.	.	.	8a	.
III	4CC	4GG	8D	4g	4b
.	.	.	8E	.	.
=6	=6	=6	=6	=6	=6
V7b	4EE	4D#	8F#	4f#	4a
.	.	.	8BB	.	.
i	4AA	4E	4B	4e	4g
V;	2EE;	2BB;	2B;	2d#;	2f#;
=7	=7	=7	=7	=7	=7
#viD7	4FF#	4C#	8B	4B	4e
.	.	.	[8A	.	.
V7b	4EE	4D#	8A]	4B	4f#
.	.	.	[8G	.	.
ib	4AA	8E	8G]	4B	4g
.	.	8D	8F#	.	.
ivb	4DD	8C	4E	8e	8a
.	.	8BB	.	8d	8b
=8	=8	=8	=8	=8	=8
iv	4DD	4AA	4E	4c	2f#
V7	4EE	4BB	4D#	8B	.
.	.	.	.	8A	.
i;	2AA;	2EE;	2BB;	2G;	2e;
==	==	==	==	==	==
*-	*-	*-	*-	*-	*-
!!chor2scor: -l 2 -s 0.6 -o %b.pmx
!!!YEC: Copyright 2003 by Craig Stuart Sapp
!!!license: GNU General Public License (http://www.gnu.org/copyleft/gpl.html)
!!!SMA: 371 Bach Chorales, edited by Ludwig Erk, C.F. Peters
!!!PDT: 1850, 1865
!!!ONB: Harmony and Root analysis done manually by Craig Sapp
